X:1
T:Title
%%score 1 { 2 | 3 }
L:1/8
Q:1/4=88
M:6/8
K:F
V:1 treble nm="Grand Piano, Soprano"
V:2 bass nm="Choir Pad, Venezuela, 88.88.10.10"
V:3 bass 
V:1
 [CF]2 [CF] [CF]<[CF][CF] | [CE]2 [CE] .[CF]3 | [FA]2 [FA] [FA]<[FA][FA] | [EG]2 [EG] .[FA]3 | %4
w: By~Arthur~J.~Hodge,~1880 * * * *||||
 [Fc]2 [Fc] [FA]<[FA][FA] | [CF]2 [DG] .[CE]3 | [A,F]2 [A,F] [A,F]<[A,F][A,F] | %7
w: |||
 [CA]2 [CG] [CF]2 [FA] | [Fc]>[Fc][Fc] [FA]2 [FA] | [GB]>[GB][GB] [EG]2 [EG] | %10
w: |||
 F[EG][FA] [FB]2 [DG]/[DG]/ | [CF]2 [CE] [CF]3- | [CF]6 |] %13
w: |||
V:2
 A,2 A, A,<A,A, | G,2 G, .A,3 | C2 C C<CC | C2 C .C3 | A,2 A, C<CC | A,2 B, .G,3 | F,2 F, F,<F,F, | %7
 F,2 B, A,2 C | A,>A,A,[K:treble] C2 C | C>CC C2 B, | A,C_E D2[K:bass] B,/B,/ | A,2 G, A,3- | %12
 A,6 |] %13
V:3
 F,2 F, F,<F,F, | C,2 C, .F,3 | F,2 F, F,<F,F, | C,2 C, .F,3 | F,2 F, F,<F,F, | F,2 B,, .C,3 | %6
 D,2 D, D,<D,D, | C,2 C, F,2 F, | F,>F,F, F,2 F, | C,>C,C, C,2 C, | D,C,E, B,,2 B,,/B,,/ | %11
 C,2 C, F,,3- | F,,6 |] %13

